;FLAVOR:Marlin
;TIME:1826
;Filament used: 1.26787m
;Layer height: 0.2
;MINX:82.675
;MINY:85.703
;MINZ:0.3
;MAXX:117.269
;MAXY:120.297
;MAXZ:20.1
;Generated with Cura_SteamEngine 4.13.1
M140 S60
M105
M190 S60
M104 S200
M105
M109 S200
M82 ;absolute extrusion mode
G21 ;metric values
 G90 ;absolute positioning
 M82 ;set extruder to absolute mode
 M107 ;start with the fan off
 G28 X0 Y0 ;move X/Y to min endstops
 G28 Z0 ;move Z to min endstops
 G1 Z15.0 F120 ;move the platform down 15mm
 G92 E0 ;zero the extruded length
 G1 F200 E6 ;extrude 6 mm of feed stock
 G92 E0 ;zero the extruded length again
 G1 F120 
 ;Put printing message on LCD screen
 M117 Printing...
G92 E0
G92 E0
G1 F1500 E-6.5
;LAYER_COUNT:100
;LAYER:0
M107
G0 F3600 X88.861 Y89.81 Z0.3
;TYPE:SKIRT
G1 F1500 E0
G1 F1800 X89.447 Y89.281 E0.03939
G1 X89.842 Y88.979 E0.06419
G1 X90.506 Y88.551 E0.10361
G1 X90.858 Y88.36 E0.12359
G1 X93.479 Y87.024 E0.27036
G1 X94.554 Y86.573 E0.32852
G1 X95.342 Y86.353 E0.36933
G1 X95.827 Y86.26 E0.39397
G1 X98.736 Y85.799 E0.54091
G1 X99.521 Y85.715 E0.5803
G1 X99.987 Y85.703 E0.60356
G1 X100.776 Y85.743 E0.64297
G1 X101.208 Y85.799 E0.6647
G1 X104.117 Y86.26 E0.81164
G1 X105.112 Y86.485 E0.86254
G1 X105.884 Y86.756 E0.90336
G1 X106.465 Y87.023 E0.93526
G1 X109.086 Y88.359 E1.08203
G1 X109.771 Y88.752 E1.12143
G1 X110.127 Y88.996 E1.14296
G1 X110.743 Y89.489 E1.18232
G1 X111.084 Y89.811 E1.20572
G1 X113.161 Y91.888 E1.35227
G1 X113.691 Y92.474 E1.39168
G1 X113.994 Y92.87 E1.41656
G1 X114.422 Y93.534 E1.45597
G1 X114.613 Y93.886 E1.47595
G1 X115.949 Y96.507 E1.62272
G1 X116.272 Y97.228 E1.66214
G1 X116.487 Y97.86 E1.69544
G1 X116.712 Y98.854 E1.74629
G1 X117.173 Y101.76 E1.89308
G1 X117.257 Y102.545 E1.93247
G1 X117.269 Y103.015 E1.95593
G1 X117.229 Y103.804 E1.99534
G1 X117.173 Y104.236 E2.01707
G1 X116.712 Y107.145 E2.16402
G1 X116.487 Y108.14 E2.21491
G1 X116.216 Y108.912 E2.25573
G1 X115.95 Y109.492 E2.28756
G1 X114.616 Y112.11 E2.43416
G1 X114.045 Y113.058 E2.48937
G1 X114.026 Y113.085 E2.49101
G1 X113.539 Y113.707 E2.53043
G1 X113.162 Y114.111 E2.55799
G1 X111.084 Y116.189 E2.70461
G1 X110.498 Y116.719 E2.74403
G1 X110.102 Y117.022 E2.7689
G1 X109.438 Y117.45 E2.80832
G1 X109.086 Y117.641 E2.8283
G1 X106.465 Y118.977 E2.97507
G1 X105.744 Y119.3 E3.01448
G1 X105.112 Y119.515 E3.04779
G1 X104.117 Y119.74 E3.09868
G1 X101.208 Y120.201 E3.24562
G1 X100.423 Y120.285 E3.28501
G1 X99.957 Y120.297 E3.30827
G1 X99.168 Y120.257 E3.34768
G1 X98.736 Y120.201 E3.36941
G1 X95.827 Y119.74 E3.51636
G1 X95.054 Y119.577 E3.55577
G1 X94.554 Y119.427 E3.58181
G1 X93.479 Y118.976 E3.63997
G1 X90.858 Y117.64 E3.78674
G1 X90.173 Y117.247 E3.82614
G1 X89.817 Y117.003 E3.84768
G1 X89.201 Y116.51 E3.88704
G1 X88.861 Y116.19 E3.91033
G1 X86.784 Y114.114 E4.05684
G1 X86.254 Y113.528 E4.09626
G1 X85.9 Y113.059 E4.12558
G1 X85.328 Y112.109 E4.1809
G1 X83.992 Y109.485 E4.3278
G1 X83.67 Y108.764 E4.3672
G1 X83.456 Y108.135 E4.40035
G1 X83.231 Y107.141 E4.45119
G1 X82.771 Y104.24 E4.59773
G1 X82.687 Y103.454 E4.63717
G1 X82.675 Y102.985 E4.66057
G1 X82.715 Y102.196 E4.69999
G1 X82.771 Y101.764 E4.72172
G1 X83.232 Y98.855 E4.86866
G1 X83.457 Y97.86 E4.91956
G1 X83.728 Y97.088 E4.96038
G1 X83.994 Y96.508 E4.99221
G1 X85.328 Y93.89 E5.1388
G1 X85.931 Y92.897 E5.19676
G1 X85.951 Y92.869 E5.19848
G1 X86.442 Y92.251 E5.23786
G1 X86.784 Y91.886 E5.26281
G1 X88.861 Y89.81 E5.40932
G0 F3600 X89.144 Y90.093
G1 F1800 X89.715 Y89.578 E5.44768
G1 X90.076 Y89.304 E5.47029
G1 X91.039 Y88.716 E5.52658
G1 X93.66 Y87.38 E5.67335
G1 X94.681 Y86.953 E5.72857
G1 X94.708 Y86.944 E5.72999
G1 X95.449 Y86.739 E5.76835
G1 X95.89 Y86.655 E5.79074
G1 X98.799 Y86.194 E5.93768
G1 X99.564 Y86.113 E5.97606
G1 X99.987 Y86.103 E5.99717
G1 X100.755 Y86.143 E6.03554
G1 X101.145 Y86.194 E6.05516
G1 X104.054 Y86.655 E6.20211
G1 X104.998 Y86.869 E6.2504
G1 X105.75 Y87.133 E6.29016
G1 X106.284 Y87.379 E6.31949
G1 X108.905 Y88.715 E6.46626
G1 X109.868 Y89.303 E6.52255
G1 X109.893 Y89.321 E6.52409
G1 X110.493 Y89.802 E6.56246
G1 X110.802 Y90.093 E6.58363
G1 X112.879 Y92.17 E6.73018
G1 X113.393 Y92.742 E6.76854
G1 X113.669 Y93.104 E6.79125
G1 X114.257 Y94.067 E6.84754
G1 X115.593 Y96.688 E6.99431
G1 X115.906 Y97.391 E7.03271
G1 X116.103 Y97.974 E7.06341
G1 X116.317 Y98.917 E7.11165
G1 X116.778 Y101.823 E7.25844
G1 X116.858 Y102.587 E7.29677
G1 X116.869 Y103.015 E7.31813
G1 X116.829 Y103.783 E7.3565
G1 X116.778 Y104.173 E7.37612
G1 X116.317 Y107.082 E7.52306
G1 X116.103 Y108.026 E7.57135
G1 X115.839 Y108.778 E7.61112
G1 X115.593 Y109.311 E7.6404
G1 X114.259 Y111.929 E7.78699
G1 X113.718 Y112.828 E7.83934
G1 X113.699 Y112.855 E7.84099
G1 X113.224 Y113.46 E7.87936
G1 X112.88 Y113.829 E7.90453
G1 X110.802 Y115.907 E8.05114
G1 X110.23 Y116.421 E8.08951
G1 X109.868 Y116.697 E8.11222
G1 X108.905 Y117.285 E8.16851
G1 X106.284 Y118.621 E8.31528
G1 X105.581 Y118.934 E8.35368
G1 X104.998 Y119.131 E8.38438
G1 X104.054 Y119.345 E8.43267
G1 X101.145 Y119.806 E8.57961
G1 X100.38 Y119.887 E8.61799
G1 X99.957 Y119.897 E8.6391
G1 X99.189 Y119.857 E8.67747
G1 X98.799 Y119.806 E8.69709
G1 X95.89 Y119.345 E8.84403
G1 X95.137 Y119.185 E8.88244
G1 X94.681 Y119.047 E8.90621
G1 X93.66 Y118.62 E8.96142
G1 X91.039 Y117.284 E9.10819
G1 X90.076 Y116.696 E9.16448
G1 X90.051 Y116.678 E9.16602
G1 X89.451 Y116.197 E9.20438
G1 X89.144 Y115.907 E9.22545
G1 X87.067 Y113.831 E9.37196
G1 X86.552 Y113.26 E9.41032
G1 X86.227 Y112.829 E9.43725
G1 X85.685 Y111.928 E9.48971
G1 X84.349 Y109.304 E9.63662
G1 X84.036 Y108.601 E9.67501
G1 X83.84 Y108.021 E9.70555
G1 X83.626 Y107.078 E9.75379
G1 X83.166 Y104.177 E9.90033
G1 X83.085 Y103.412 E9.93871
G1 X83.075 Y102.985 E9.96002
G1 X83.115 Y102.217 E9.99839
G1 X83.166 Y101.827 E10.01801
G1 X83.627 Y98.918 E10.16495
G1 X83.841 Y97.974 E10.21325
G1 X84.105 Y97.222 E10.25301
G1 X84.351 Y96.689 E10.2823
G1 X85.685 Y94.071 E10.42889
G1 X86.256 Y93.13 E10.4838
G1 X86.276 Y93.102 E10.48552
G1 X86.755 Y92.5 E10.5239
G1 X87.067 Y92.169 E10.54659
G1 X89.144 Y90.093 E10.6931
G0 F3600 X89.426 Y90.376
G1 F1800 X89.983 Y89.876 E10.73044
G1 X90.31 Y89.628 E10.75092
G1 X91.221 Y89.072 E10.80416
G1 X93.842 Y87.736 E10.95093
G1 X94.807 Y87.332 E11.00313
G1 X94.834 Y87.323 E11.00455
G1 X95.556 Y87.125 E11.0419
G1 X95.952 Y87.05 E11.06201
G1 X98.861 Y86.589 E11.20895
G1 X99.957 Y86.503 E11.26379
G1 X99.987 Y86.503 E11.26529
G1 X101.083 Y86.589 E11.32014
G1 X103.992 Y87.05 E11.46708
G1 X104.885 Y87.252 E11.51276
G1 X104.912 Y87.26 E11.51416
G1 X105.616 Y87.511 E11.55145
G1 X106.102 Y87.735 E11.57815
G1 X108.723 Y89.071 E11.72492
G1 X109.634 Y89.627 E11.77817
G1 X109.659 Y89.645 E11.7797
G1 X110.242 Y90.114 E11.81703
G1 X110.519 Y90.376 E11.83605
G1 X112.596 Y92.453 E11.9826
G1 X113.096 Y93.01 E12.01994
G1 X113.345 Y93.338 E12.04049
G1 X113.901 Y94.249 E12.09373
G1 X115.237 Y96.87 E12.2405
G1 X115.54 Y97.554 E12.27782
G1 X115.72 Y98.087 E12.30589
G1 X115.922 Y98.979 E12.35152
G1 X116.383 Y101.885 E12.49831
G1 X116.469 Y102.982 E12.55321
G1 X116.469 Y103.015 E12.55486
G1 X116.383 Y104.111 E12.60971
G1 X115.922 Y107.02 E12.75665
G1 X115.72 Y107.913 E12.80233
G1 X115.712 Y107.94 E12.80373
G1 X115.461 Y108.644 E12.84102
G1 X115.237 Y109.129 E12.86767
G1 X113.903 Y111.747 E13.01426
G1 X113.391 Y112.597 E13.06377
G1 X113.372 Y112.624 E13.06542
G1 X112.909 Y113.212 E13.10275
G1 X112.597 Y113.546 E13.12556
G1 X110.519 Y115.624 E13.27217
G1 X109.962 Y116.124 E13.30951
G1 X109.634 Y116.373 E13.33006
G1 X108.723 Y116.929 E13.3833
G1 X106.102 Y118.265 E13.53007
G1 X105.418 Y118.568 E13.5674
G1 X104.885 Y118.748 E13.59546
G1 X103.992 Y118.95 E13.64114
G1 X101.083 Y119.411 E13.78808
G1 X99.987 Y119.497 E13.84293
G1 X99.957 Y119.497 E13.84443
G1 X98.861 Y119.411 E13.89928
G1 X95.952 Y118.95 E14.04622
G1 X95.221 Y118.793 E14.08352
G1 X94.807 Y118.668 E14.10509
G1 X93.842 Y118.264 E14.15729
G1 X91.221 Y116.928 E14.30406
G1 X90.31 Y116.372 E14.3573
G1 X90.285 Y116.354 E14.35884
G1 X89.702 Y115.885 E14.39617
G1 X89.426 Y115.624 E14.41512
G1 X87.349 Y113.548 E14.56163
G1 X86.849 Y112.992 E14.59894
G1 X86.554 Y112.598 E14.62349
G1 X86.041 Y111.746 E14.67311
G1 X84.705 Y109.122 E14.82001
G1 X84.402 Y108.438 E14.85733
G1 X84.223 Y107.908 E14.88524
G1 X84.021 Y107.015 E14.93092
G1 X83.561 Y104.114 E15.07746
G1 X83.475 Y103.018 E15.13231
G1 X83.475 Y102.985 E15.13395
G1 X83.561 Y101.889 E15.1888
G1 X84.022 Y98.98 E15.33574
G1 X84.224 Y98.087 E15.38142
G1 X84.232 Y98.06 E15.38283
G1 X84.483 Y97.356 E15.42012
G1 X84.707 Y96.871 E15.44677
G1 X86.041 Y94.253 E15.59336
G1 X86.582 Y93.362 E15.64536
G1 X86.602 Y93.334 E15.64708
G1 X87.069 Y92.75 E15.68439
G1 X87.349 Y92.452 E15.70479
G1 X89.426 Y90.376 E15.8513
G0 F3600 X89.709 Y90.659
G1 F1800 X90.519 Y89.971 E15.90432
G1 X90.544 Y89.953 E15.90585
G1 X91.403 Y89.429 E15.95605
G1 X94.024 Y88.093 E16.10282
G1 X94.934 Y87.712 E16.15204
G1 X94.961 Y87.703 E16.15346
G1 X96.015 Y87.445 E16.2076
G1 X98.924 Y86.984 E16.35454
G1 X99.957 Y86.903 E16.40623
G1 X99.987 Y86.903 E16.40773
G1 X101.02 Y86.984 E16.45943
G1 X103.929 Y87.445 E16.60637
G1 X104.771 Y87.636 E16.64944
G1 X104.798 Y87.644 E16.65085
G1 X105.482 Y87.888 E16.68708
G1 X105.92 Y88.092 E16.71118
G1 X108.541 Y89.428 E16.85795
G1 X109.4 Y89.952 E16.90815
G1 X109.425 Y89.97 E16.90969
G1 X110.236 Y90.659 E16.96278
G1 X112.313 Y92.736 E17.10933
G1 X113.002 Y93.547 E17.16242
G1 X113.02 Y93.572 E17.16395
G1 X113.544 Y94.431 E17.21415
G1 X114.88 Y97.052 E17.36092
G1 X115.174 Y97.716 E17.39715
G1 X115.336 Y98.201 E17.42266
G1 X115.526 Y99.042 E17.46568
G1 X115.987 Y101.948 E17.61247
G1 X116.069 Y102.982 E17.66422
G1 X116.069 Y103.015 E17.66587
G1 X115.988 Y104.048 E17.71756
G1 X115.527 Y106.957 E17.8645
G1 X115.336 Y107.799 E17.90758
G1 X115.328 Y107.826 E17.90898
G1 X115.084 Y108.51 E17.94522
G1 X114.881 Y108.947 E17.96926
G1 X113.547 Y111.565 E18.11585
G1 X113.064 Y112.367 E18.16255
G1 X113.045 Y112.394 E18.1642
G1 X112.594 Y112.964 E18.20046
G1 X112.314 Y113.263 E18.2209
G1 X110.236 Y115.341 E18.36751
G1 X109.425 Y116.03 E18.42061
G1 X109.4 Y116.048 E18.42214
G1 X108.541 Y116.572 E18.47234
G1 X105.92 Y117.908 E18.61911
G1 X105.256 Y118.202 E18.65534
G1 X104.771 Y118.364 E18.68085
G1 X103.929 Y118.555 E18.72393
G1 X101.02 Y119.016 E18.87087
G1 X99.987 Y119.097 E18.92256
G1 X99.957 Y119.097 E18.92406
G1 X98.924 Y119.016 E18.97576
G1 X96.015 Y118.555 E19.1227
G1 X94.961 Y118.297 E19.17683
G1 X94.934 Y118.288 E19.17825
G1 X94.024 Y117.907 E19.22747
G1 X91.403 Y116.571 E19.37424
G1 X90.544 Y116.047 E19.42444
G1 X90.519 Y116.029 E19.42598
G1 X89.709 Y115.341 E19.479
G1 X87.632 Y113.265 E19.62551
G1 X87.148 Y112.724 E19.66172
G1 X86.881 Y112.368 E19.68393
G1 X86.397 Y111.565 E19.7307
G1 X85.061 Y108.941 E19.8776
G1 X84.768 Y108.276 E19.91386
G1 X84.607 Y107.794 E19.93921
G1 X84.416 Y106.953 E19.98224
G1 X83.956 Y104.052 E20.12878
G1 X83.875 Y103.018 E20.18052
G1 X83.875 Y102.985 E20.18217
G1 X83.956 Y101.952 E20.23386
G1 X84.417 Y99.043 E20.38081
G1 X84.608 Y98.201 E20.42388
G1 X84.616 Y98.174 E20.42529
G1 X84.86 Y97.49 E20.46152
G1 X85.063 Y97.053 E20.48556
G1 X86.397 Y94.435 E20.63215
G1 X86.907 Y93.595 E20.68117
G1 X86.927 Y93.567 E20.68289
G1 X87.381 Y93 E20.71913
G1 X87.632 Y92.735 E20.73734
G1 X89.709 Y90.659 E20.88385
G0 F3600 X89.992 Y90.942
G1 F1800 X90.752 Y90.295 E20.93364
G1 X90.777 Y90.277 E20.93518
G1 X91.584 Y89.785 E20.98233
G1 X94.205 Y88.449 E21.1291
G1 X95.06 Y88.091 E21.17535
G1 X95.087 Y88.082 E21.17677
G1 X96.078 Y87.84 E21.22766
G1 X98.987 Y87.379 E21.3746
G1 X99.957 Y87.303 E21.42315
G1 X99.987 Y87.303 E21.42464
G1 X100.957 Y87.379 E21.47318
G1 X103.866 Y87.84 E21.62013
G1 X104.657 Y88.019 E21.66059
G1 X104.684 Y88.027 E21.66199
G1 X105.347 Y88.265 E21.69714
G1 X105.739 Y88.448 E21.71872
G1 X108.36 Y89.784 E21.86549
G1 X109.167 Y90.276 E21.91264
G1 X109.192 Y90.294 E21.91418
G1 X109.953 Y90.942 E21.96405
G1 X112.03 Y93.019 E22.11059
G1 X112.678 Y93.78 E22.16046
G1 X112.696 Y93.805 E22.16199
G1 X113.188 Y94.612 E22.20915
G1 X114.524 Y97.233 E22.35592
G1 X114.807 Y97.878 E22.39106
G1 X114.953 Y98.315 E22.41404
G1 X115.131 Y99.105 E22.45444
G1 X115.592 Y102.011 E22.60124
G1 X115.669 Y102.982 E22.64983
G1 X115.669 Y103.015 E22.65148
G1 X115.593 Y103.985 E22.70002
G1 X115.132 Y106.894 E22.84696
G1 X114.953 Y107.685 E22.88742
G1 X114.945 Y107.712 E22.88883
G1 X114.707 Y108.375 E22.92397
G1 X114.524 Y108.766 E22.94551
G1 X113.19 Y111.384 E23.0921
G1 X112.736 Y112.137 E23.13597
G1 X112.717 Y112.164 E23.13762
G1 X112.28 Y112.716 E23.17274
G1 X112.031 Y112.98 E23.19085
G1 X109.953 Y115.058 E23.33746
G1 X109.192 Y115.706 E23.38733
G1 X109.167 Y115.724 E23.38886
G1 X108.36 Y116.216 E23.43602
G1 X105.739 Y117.552 E23.58279
G1 X105.094 Y117.835 E23.61793
G1 X104.657 Y117.981 E23.64091
G1 X103.866 Y118.16 E23.68138
G1 X100.957 Y118.621 E23.82832
G1 X99.987 Y118.697 E23.87686
G1 X99.957 Y118.697 E23.87836
G1 X98.987 Y118.621 E23.9269
G1 X96.078 Y118.16 E24.07384
G1 X95.087 Y117.918 E24.12473
G1 X95.06 Y117.909 E24.12615
G1 X94.205 Y117.551 E24.1724
G1 X91.584 Y116.215 E24.31917
G1 X90.777 Y115.723 E24.36632
G1 X90.752 Y115.705 E24.36786
G1 X89.992 Y115.058 E24.41765
G1 X87.915 Y112.982 E24.56416
G1 X87.446 Y112.457 E24.59928
G1 X87.209 Y112.138 E24.61911
G1 X86.754 Y111.383 E24.66309
G1 X85.418 Y108.759 E24.80999
G1 X85.135 Y108.115 E24.84509
G1 X84.99 Y107.68 E24.86796
G1 X84.812 Y106.89 E24.90836
G1 X84.352 Y103.989 E25.0549
G1 X84.275 Y103.018 E25.1035
G1 X84.275 Y102.985 E25.10515
G1 X84.351 Y102.015 E25.15369
G1 X84.812 Y99.106 E25.30063
G1 X84.991 Y98.315 E25.34109
G1 X84.999 Y98.288 E25.34249
G1 X85.237 Y97.625 E25.37764
G1 X85.42 Y97.234 E25.39918
G1 X86.754 Y94.616 E25.54577
G1 X87.233 Y93.827 E25.59182
G1 X87.253 Y93.799 E25.59353
G1 X87.915 Y93.018 E25.64461
G1 X89.992 Y90.942 E25.79112
G0 F3600 X90.275 Y91.225
G1 F1800 X90.986 Y90.62 E25.8377
G1 X91.011 Y90.602 E25.83923
G1 X91.766 Y90.142 E25.88334
G1 X94.387 Y88.806 E26.03011
G1 X95.187 Y88.471 E26.07338
G1 X95.214 Y88.462 E26.0748
G1 X96.14 Y88.235 E26.12237
G1 X99.049 Y87.774 E26.26931
G1 X99.957 Y87.703 E26.31475
G1 X99.987 Y87.703 E26.31624
G1 X100.895 Y87.774 E26.36168
G1 X103.804 Y88.235 E26.50862
G1 X104.544 Y88.403 E26.54648
G1 X104.571 Y88.411 E26.54789
G1 X105.211 Y88.642 E26.58183
G1 X105.557 Y88.805 E26.60092
G1 X108.178 Y90.141 E26.74769
G1 X108.933 Y90.601 E26.79179
G1 X108.958 Y90.619 E26.79333
G1 X109.67 Y91.225 E26.83998
G1 X111.747 Y93.302 E26.98652
G1 X112.353 Y94.014 E27.03317
G1 X112.371 Y94.039 E27.0347
G1 X112.831 Y94.794 E27.07881
G1 X114.167 Y97.415 E27.22558
G1 X114.44 Y98.039 E27.25956
G1 X114.569 Y98.428 E27.28001
G1 X114.736 Y99.167 E27.31781
G1 X115.197 Y102.073 E27.4646
G1 X115.269 Y102.982 E27.51009
G1 X115.269 Y103.015 E27.51174
G1 X115.198 Y103.923 E27.55718
G1 X114.737 Y106.832 E27.70412
G1 X114.569 Y107.572 E27.74198
G1 X114.561 Y107.599 E27.74338
G1 X114.33 Y108.239 E27.77733
G1 X114.168 Y108.584 E27.79634
G1 X112.834 Y111.202 E27.94293
G1 X112.409 Y111.907 E27.984
G1 X112.39 Y111.934 E27.98565
G1 X111.748 Y112.697 E28.0354
G1 X109.67 Y114.775 E28.18201
G1 X108.958 Y115.381 E28.22866
G1 X108.933 Y115.399 E28.2302
G1 X108.178 Y115.859 E28.2743
G1 X105.557 Y117.195 E28.42107
G1 X104.933 Y117.468 E28.45506
G1 X104.544 Y117.597 E28.4755
G1 X103.804 Y117.765 E28.51336
G1 X100.895 Y118.226 E28.6603
G1 X99.987 Y118.297 E28.70574
G1 X99.957 Y118.297 E28.70724
G1 X99.049 Y118.226 E28.75268
G1 X96.14 Y117.765 E28.89962
G1 X95.214 Y117.538 E28.94718
G1 X95.187 Y117.529 E28.9486
G1 X94.387 Y117.194 E28.99187
G1 X91.766 Y115.858 E29.13864
G1 X91.011 Y115.398 E29.18275
G1 X90.986 Y115.38 E29.18429
G1 X90.275 Y114.775 E29.23086
G1 X88.198 Y112.699 E29.37737
G1 X87.555 Y111.935 E29.42719
G1 X87.536 Y111.908 E29.42884
G1 X87.11 Y111.202 E29.46998
G1 X85.774 Y108.578 E29.61688
G1 X85.502 Y107.954 E29.65084
G1 X85.374 Y107.567 E29.67118
G1 X85.207 Y106.827 E29.70902
G1 X84.747 Y103.926 E29.85556
G1 X84.675 Y103.018 E29.90101
G1 X84.675 Y102.985 E29.90265
G1 X84.746 Y102.077 E29.94809
G1 X85.207 Y99.168 E30.09503
G1 X85.375 Y98.428 E30.13289
